svg/u1f4df.svg

<svg viewBox="0 0 128 128" xmlns="http://www.w3.org/2000/svg">
  <g>
    <path d="M104.02,24l-80.05-0.12C8.91,23.88,4,29.99,4,42.74v42.4C4,95.57,7.24,104,23.98,104l80.05,0.12 c15.03,0,19.98-6.44,19.98-18.86v-42.4C124,28.85,118.68,24,104.02,24z" fill="#504F4F"/>
    <g>
      <path d="M109.54,66.61c0,2.12-1.67,3.8-3.8,3.8H22.21c-2.12,0-3.8-1.67-3.8-3.8V41.92 c0-2.12,1.67-3.8,3.8-3.8h83.53c2.12,0,3.8,1.67,3.8,3.8L109.54,66.61z" fill="#8DCC47"/>
      <path d="M41.63,51.56L40,53.19c-0.25,0.25-0.66,0.25-0.91,0l-1.63-1.63 c-0.13-0.13-0.19-0.29-0.19-0.46v-4.54c0-0.17,0.07-0.33,0.19-0.46l1.63-1.63c0.25-0.25,0.66-0.25,0.91,0l1.63,1.63 c0.13,0.13,0.19,0.29,0.19,0.46v4.54C41.82,51.28,41.75,51.44,41.63,51.56z" opacity="0.5" enable-background="new "/>
      <path d="M41.63,62.42L40,64.05c-0.25,0.25-0.66,0.25-0.91,0l-1.63-1.63 c-0.13-0.13-0.19-0.29-0.19-0.46v-4.54c0-0.17,0.07-0.33,0.19-0.46l1.63-1.63c0.25-0.25,0.66-0.25,0.91,0l1.63,1.63 c0.13,0.13,0.19,0.29,0.19,0.46v4.54C41.82,62.14,41.75,62.3,41.63,62.42z" opacity="0.5" enable-background="new "/>
      <path d="M49.99,51.56l-1.63,1.63c-0.25,0.25-0.66,0.25-0.91,0l-1.63-1.63 c-0.13-0.13-0.19-0.29-0.19-0.46v-4.54c0-0.17,0.07-0.33,0.19-0.46l1.63-1.63c0.25-0.25,0.66-0.25,0.91,0l1.63,1.63 c0.13,0.13,0.19,0.29,0.19,0.46v4.54C50.18,51.28,50.11,51.44,49.99,51.56z" opacity="0.5" enable-background="new "/>
      <path d="M61.89,51.56l-1.63,1.63c-0.25,0.25-0.66,0.25-0.91,0l-1.63-1.63 c-0.13-0.13-0.19-0.29-0.19-0.46v-4.54c0-0.17,0.07-0.33,0.19-0.46l1.63-1.63c0.25-0.25,0.66-0.25,0.91,0l1.63,1.63 c0.13,0.13,0.19,0.29,0.19,0.46v4.54C62.08,51.28,62.01,51.44,61.89,51.56z" opacity="0.5" enable-background="new "/>
      <path d="M61.89,62.42l-1.63,1.63c-0.25,0.25-0.66,0.25-0.91,0l-1.63-1.63 c-0.13-0.13-0.19-0.29-0.19-0.46v-4.54c0-0.17,0.07-0.33,0.19-0.46l1.63-1.63c0.25-0.25,0.66-0.25,0.91,0l1.63,1.63 c0.13,0.13,0.19,0.29,0.19,0.46v4.54C62.08,62.14,62.01,62.3,61.89,62.42z" opacity="0.5" enable-background="new "/>
      <path d="M51.13,45.49l-1.63-1.63c-0.25-0.25-0.25-0.66,0-0.91l1.63-1.63 c0.13-0.13,0.29-0.19,0.46-0.19h4.55c0.17,0,0.33,0.07,0.46,0.19l1.63,1.63c0.25,0.25,0.25,0.66,0,0.91l-1.63,1.63 c-0.13,0.13-0.29,0.19-0.46,0.19h-4.55C51.41,45.68,51.25,45.61,51.13,45.49z" opacity="0.5" enable-background="new "/>
      <path d="M51.13,56.35l-1.63-1.63c-0.25-0.25-0.25-0.66,0-0.91l1.63-1.63 c0.13-0.13,0.29-0.19,0.46-0.19h4.55c0.17,0,0.33,0.07,0.46,0.19l1.63,1.63c0.25,0.25,0.25,0.66,0,0.91l-1.63,1.63 c-0.13,0.13-0.29,0.19-0.46,0.19h-4.55C51.41,56.54,51.25,56.47,51.13,56.35z" opacity="0.5" enable-background="new "/>
      <path d="M51.13,67.21l-1.63-1.63c-0.25-0.25-0.25-0.66,0-0.91l1.63-1.63 c0.13-0.13,0.29-0.19,0.46-0.19h4.55c0.17,0,0.33,0.07,0.46,0.19l1.63,1.63c0.25,0.25,0.25,0.66,0,0.91l-1.63,1.63 c-0.13,0.13-0.29,0.19-0.46,0.19h-4.55C51.41,67.4,51.25,67.33,51.13,67.21z" opacity="0.5" enable-background="new "/>
      <path d="M70.25,51.56l-1.63,1.63c-0.25,0.25-0.66,0.25-0.91,0l-1.63-1.63 c-0.13-0.13-0.19-0.29-0.19-0.46v-4.54c0-0.17,0.07-0.33,0.19-0.46l1.63-1.63c0.25-0.25,0.66-0.25,0.91,0l1.63,1.63 c0.13,0.13,0.19,0.29,0.19,0.46v4.54C70.44,51.28,70.37,51.44,70.25,51.56z" opacity="0.5" enable-background="new "/>
      <path d="M82.16,51.56l-1.63,1.63c-0.25,0.25-0.66,0.25-0.91,0l-1.63-1.63 c-0.13-0.13-0.19-0.29-0.19-0.46v-4.54c0-0.17,0.07-0.33,0.19-0.46l1.63-1.63c0.25-0.25,0.66-0.25,0.91,0l1.63,1.63 c0.13,0.13,0.19,0.29,0.19,0.46v4.54C82.34,51.28,82.27,51.44,82.16,51.56z" opacity="0.5" enable-background="new "/>
      <path d="M82.16,62.42l-1.63,1.63c-0.25,0.25-0.66,0.25-0.91,0l-1.63-1.63 c-0.13-0.13-0.19-0.29-0.19-0.46v-4.54c0-0.17,0.07-0.33,0.19-0.46l1.63-1.63c0.25-0.25,0.66-0.25,0.91,0l1.63,1.63 c0.13,0.13,0.19,0.29,0.19,0.46v4.54C82.34,62.14,82.27,62.3,82.16,62.42z" opacity="0.5" enable-background="new "/>
      <path d="M71.39,45.49l-1.63-1.63c-0.25-0.25-0.25-0.66,0-0.91l1.63-1.63 c0.13-0.13,0.29-0.19,0.46-0.19h4.55c0.17,0,0.33,0.07,0.46,0.19l1.63,1.63c0.25,0.25,0.25,0.66,0,0.91l-1.63,1.63 c-0.13,0.13-0.29,0.19-0.46,0.19h-4.55C71.67,45.68,71.51,45.61,71.39,45.49z" opacity="0.5" enable-background="new "/>
      <path d="M71.39,56.35l-1.63-1.63c-0.25-0.25-0.25-0.66,0-0.91l1.63-1.63 c0.13-0.13,0.29-0.19,0.46-0.19h4.55c0.17,0,0.33,0.07,0.46,0.19l1.63,1.63c0.25,0.25,0.25,0.66,0,0.91l-1.63,1.63 c-0.13,0.13-0.29,0.19-0.46,0.19h-4.55C71.67,56.54,71.51,56.47,71.39,56.35z" opacity="0.5" enable-background="new "/>
      <path d="M71.39,67.21l-1.63-1.63c-0.25-0.25-0.25-0.66,0-0.91l1.63-1.63 c0.13-0.13,0.29-0.19,0.46-0.19h4.55c0.17,0,0.33,0.07,0.46,0.19l1.63,1.63c0.25,0.25,0.25,0.66,0,0.91l-1.63,1.63 c-0.13,0.13-0.29,0.19-0.46,0.19h-4.55C71.67,67.4,71.51,67.33,71.39,67.21z" opacity="0.5" enable-background="new "/>
      <path d="M90.52,51.56l-1.63,1.63c-0.25,0.25-0.66,0.25-0.91,0l-1.63-1.63 c-0.13-0.13-0.19-0.29-0.19-0.46v-4.54c0-0.17,0.07-0.33,0.19-0.46l1.63-1.63c0.25-0.25,0.66-0.25,0.91,0l1.63,1.63 c0.13,0.13,0.19,0.29,0.19,0.46v4.54C90.7,51.28,90.63,51.44,90.52,51.56z" opacity="0.5" enable-background="new "/>
      <path d="M102.41,51.56l-1.63,1.63c-0.25,0.25-0.66,0.25-0.91,0l-1.63-1.63 c-0.13-0.13-0.19-0.29-0.19-0.46v-4.54c0-0.17,0.07-0.33,0.19-0.46l1.63-1.63c0.25-0.25,0.66-0.25,0.91,0l1.63,1.63 c0.13,0.13,0.19,0.29,0.19,0.46v4.54C102.61,51.28,102.54,51.44,102.41,51.56z" opacity="0.5" enable-background="new "/>
      <path d="M90.52,62.42l-1.63,1.63c-0.25,0.25-0.66,0.25-0.91,0l-1.63-1.63 c-0.13-0.13-0.19-0.29-0.19-0.46v-4.54c0-0.17,0.07-0.33,0.19-0.46l1.63-1.63c0.25-0.25,0.66-0.25,0.91,0l1.63,1.63 c0.13,0.13,0.19,0.29,0.19,0.46v4.54C90.7,62.14,90.63,62.3,90.52,62.42z" opacity="0.5" enable-background="new "/>
      <path d="M102.41,62.42l-1.63,1.63c-0.25,0.25-0.66,0.25-0.91,0l-1.63-1.63 c-0.13-0.13-0.19-0.29-0.19-0.46v-4.54c0-0.17,0.07-0.33,0.19-0.46l1.63-1.63c0.25-0.25,0.66-0.25,0.91,0l1.63,1.63 c0.13,0.13,0.19,0.29,0.19,0.46v4.54C102.61,62.14,102.54,62.3,102.41,62.42z" opacity="0.5" enable-background="new "/>
      <path d="M91.66,45.49l-1.63-1.63c-0.25-0.25-0.25-0.66,0-0.91l1.63-1.63 c0.13-0.13,0.29-0.19,0.46-0.19h4.55c0.17,0,0.33,0.07,0.46,0.19l1.63,1.63c0.25,0.25,0.25,0.66,0,0.91l-1.63,1.63 c-0.13,0.13-0.29,0.19-0.46,0.19h-4.55C91.94,45.68,91.77,45.61,91.66,45.49z" opacity="0.5" enable-background="new "/>
      <path d="M91.66,56.35l-1.63-1.63c-0.25-0.25-0.25-0.66,0-0.91l1.63-1.63 c0.13-0.13,0.29-0.19,0.46-0.19h4.55c0.17,0,0.33,0.07,0.46,0.19l1.63,1.63c0.25,0.25,0.25,0.66,0,0.91l-1.63,1.63 c-0.13,0.13-0.29,0.19-0.46,0.19h-4.55C91.94,56.54,91.77,56.47,91.66,56.35z" opacity="0.5" enable-background="new "/>
      <path d="M91.66,67.21l-1.63-1.63c-0.25-0.25-0.25-0.66,0-0.91l1.63-1.63 c0.13-0.13,0.29-0.19,0.46-0.19h4.55c0.17,0,0.33,0.07,0.46,0.19l1.63,1.63c0.25,0.25,0.25,0.66,0,0.91l-1.63,1.63 c-0.13,0.13-0.29,0.19-0.46,0.19h-4.55C91.94,67.4,91.77,67.33,91.66,67.21z" opacity="0.5" enable-background="new "/>
    </g>
    <g>
      <g>
        <path d="M106.07,94.58h-8.68c-3.87,0-5.85-3.04-5.85-6.9c0-3.87,1.98-6.9,5.85-6.9h8.68c3.87,0,5.85,3.04,5.85,6.9 C111.9,91.27,109.92,94.58,106.07,94.58z"/>
        <path d="M105.59,90h-7.8c-2.04,0-1.99-1.02-1.99-2.32s-0.05-2.32,1.99-2.32h7.8 c2.04,0,2.08,1.02,2.08,2.32C107.66,88.88,107.62,90,105.59,90z" fill="#8BC34A"/>
      </g>
      <g>
        <path d="M30.61,94.58h-8.68c-3.87,0-5.85-3.04-5.85-6.9c0-3.87,1.98-6.9,5.85-6.9h8.68c3.87,0,5.85,3.04,5.85,6.9 C36.46,91.27,34.47,94.58,30.61,94.58z"/>
        <circle cx="26.27" cy="87.68" r="4.16" fill="#F44336"/>
      </g>
      <g>
        <path d="M80.91,94.58h-8.68c-3.87,0-5.85-3.04-5.85-6.9c0-3.87,1.98-6.9,5.85-6.9h8.68c3.87,0,5.85,3.04,5.85,6.9 C86.77,91.27,84.78,94.58,80.91,94.58z"/>
        <polygon points="74.54,83.52 81.43,87.68 74.54,91.84 " fill="#EEEEEE"/>
      </g>
      <g>
        <path d="M47.09,94.58h8.68c3.87,0,5.85-3.04,5.85-6.9c0-3.87-1.98-6.9-5.85-6.9h-8.68c-3.87,0-5.85,3.04-5.85,6.9 C41.23,91.27,43.22,94.58,47.09,94.58z"/>
        <polygon points="53.46,83.52 46.57,87.68 53.46,91.84 " fill="#EEEEEE"/>
      </g>
    </g>
    <path d="M105.75,38.12c2.12,0,3.8,1.67,3.8,3.8v24.68c0,2.12-1.67,3.8-3.8,3.8H22.21c-2.12,0-3.8-1.67-3.8-3.8V41.92 c0-2.12,1.67-3.8,3.8-3.8H105.75 M105.75,32.94H22.21c-4.96,0-8.99,4.03-8.99,8.99v24.68c0,4.96,4.03,8.99,8.99,8.99h83.53 c4.96,0,8.99-4.03,8.99-8.99V41.92C114.73,36.97,110.7,32.94,105.75,32.94L105.75,32.94z"/>
  </g>
</svg>

<svg viewBox="0 0 128 128" xmlns="http://www.w3.org/2000/svg">
  <defs/>
  <path d="M104.02,24 L23.97,23.88 C8.91,23.88 4,29.99 4,42.74 L4,85.14 C4,95.57 7.24,104 23.98,104 L104.03,104.12 C119.06,104.12 124.01,97.68 124.01,85.26 L124.01,42.86 C124,28.85 118.68,24 104.02,24 Z" fill="#504F4F"/>
  <path d="M109.54,66.61 C109.54,68.73 107.87,70.41 105.74,70.41 L22.21,70.41 C20.09,70.41 18.41,68.74 18.41,66.61 L18.41,41.92 C18.41,39.8 20.08,38.12 22.21,38.12 L105.74,38.12 C107.86,38.12 109.54,39.79 109.54,41.92 L109.54,66.61 Z" fill="#8DCC47"/>
  <path d="M41.63,51.56 L40,53.19 C39.75,53.44 39.34,53.44 39.09,53.19 L37.46,51.56 C37.33,51.43 37.27,51.27 37.27,51.1 L37.27,46.56 C37.27,46.39 37.34,46.23 37.46,46.1 L39.09,44.47 C39.34,44.22 39.75,44.22 40,44.47 L41.63,46.1 C41.76,46.23 41.82,46.39 41.82,46.56 L41.82,51.1 C41.82,51.28 41.75,51.44 41.63,51.56 Z" opacity="0.5"/>
  <path d="M41.63,62.42 L40,64.05 C39.75,64.3 39.34,64.3 39.09,64.05 L37.46,62.42 C37.33,62.29 37.27,62.13 37.27,61.96 L37.27,57.42 C37.27,57.25 37.34,57.09 37.46,56.96 L39.09,55.33 C39.34,55.08 39.75,55.08 40,55.33 L41.63,56.96 C41.76,57.09 41.82,57.25 41.82,57.42 L41.82,61.96 C41.82,62.14 41.75,62.3 41.63,62.42 Z" opacity="0.5"/>
  <path d="M49.99,51.56 L48.36,53.19 C48.11,53.44 47.7,53.44 47.45,53.19 L45.82,51.56 C45.69,51.43 45.63,51.27 45.63,51.1 L45.63,46.56 C45.63,46.39 45.7,46.23 45.82,46.1 L47.45,44.47 C47.7,44.22 48.11,44.22 48.36,44.47 L49.99,46.1 C50.12,46.23 50.18,46.39 50.18,46.56 L50.18,51.1 C50.18,51.28 50.11,51.44 49.99,51.56 Z" opacity="0.5"/>
  <path d="M61.89,51.56 L60.26,53.19 C60.01,53.44 59.6,53.44 59.35,53.19 L57.72,51.56 C57.59,51.43 57.53,51.27 57.53,51.1 L57.53,46.56 C57.53,46.39 57.6,46.23 57.72,46.1 L59.35,44.47 C59.6,44.22 60.01,44.22 60.26,44.47 L61.89,46.1 C62.02,46.23 62.08,46.39 62.08,46.56 L62.08,51.1 C62.08,51.28 62.01,51.44 61.89,51.56 Z" opacity="0.5"/>
  <path d="M61.89,62.42 L60.26,64.05 C60.01,64.3 59.6,64.3 59.35,64.05 L57.72,62.42 C57.59,62.29 57.53,62.13 57.53,61.96 L57.53,57.42 C57.53,57.25 57.6,57.09 57.72,56.96 L59.35,55.33 C59.6,55.08 60.01,55.08 60.26,55.33 L61.89,56.96 C62.02,57.09 62.08,57.25 62.08,57.42 L62.08,61.96 C62.08,62.14 62.01,62.3 61.89,62.42 Z" opacity="0.5"/>
  <path d="M51.13,45.49 L49.5,43.86 C49.25,43.61 49.25,43.2 49.5,42.95 L51.13,41.32 C51.26,41.19 51.42,41.13 51.59,41.13 L56.14,41.13 C56.31,41.13 56.47,41.2 56.6,41.32 L58.23,42.95 C58.48,43.2 58.48,43.61 58.23,43.86 L56.6,45.49 C56.47,45.62 56.31,45.68 56.14,45.68 L51.59,45.68 C51.41,45.68 51.25,45.61 51.13,45.49 Z" opacity="0.5"/>
  <path d="M51.13,56.35 L49.5,54.72 C49.25,54.47 49.25,54.06 49.5,53.81 L51.13,52.18 C51.26,52.05 51.42,51.99 51.59,51.99 L56.14,51.99 C56.31,51.99 56.47,52.06 56.6,52.18 L58.23,53.81 C58.48,54.06 58.48,54.47 58.23,54.72 L56.6,56.35 C56.47,56.48 56.31,56.54 56.14,56.54 L51.59,56.54 C51.41,56.54 51.25,56.47 51.13,56.35 Z" opacity="0.5"/>
  <path d="M51.13,67.21 L49.5,65.58 C49.25,65.33 49.25,64.92 49.5,64.67 L51.13,63.04 C51.26,62.91 51.42,62.85 51.59,62.85 L56.14,62.85 C56.31,62.85 56.47,62.92 56.6,63.04 L58.23,64.67 C58.48,64.92 58.48,65.33 58.23,65.58 L56.6,67.21 C56.47,67.34 56.31,67.4 56.14,67.4 L51.59,67.4 C51.41,67.4 51.25,67.33 51.13,67.21 Z" opacity="0.5"/>
  <path d="M70.25,51.56 L68.62,53.19 C68.37,53.44 67.96,53.44 67.71,53.19 L66.08,51.56 C65.95,51.43 65.89,51.27 65.89,51.1 L65.89,46.56 C65.89,46.39 65.96,46.23 66.08,46.1 L67.71,44.47 C67.96,44.22 68.37,44.22 68.62,44.47 L70.25,46.1 C70.38,46.23 70.44,46.39 70.44,46.56 L70.44,51.1 C70.44,51.28 70.37,51.44 70.25,51.56 Z" opacity="0.5"/>
  <path d="M82.16,51.56 L80.53,53.19 C80.28,53.44 79.87,53.44 79.62,53.19 L77.99,51.56 C77.86,51.43 77.8,51.27 77.8,51.1 L77.8,46.56 C77.8,46.39 77.87,46.23 77.99,46.1 L79.62,44.47 C79.87,44.22 80.28,44.22 80.53,44.47 L82.16,46.1 C82.29,46.23 82.35,46.39 82.35,46.56 L82.35,51.1 C82.34,51.28 82.27,51.44 82.16,51.56 Z" opacity="0.5"/>
  <path d="M82.16,62.42 L80.53,64.05 C80.28,64.3 79.87,64.3 79.62,64.05 L77.99,62.42 C77.86,62.29 77.8,62.13 77.8,61.96 L77.8,57.42 C77.8,57.25 77.87,57.09 77.99,56.96 L79.62,55.33 C79.87,55.08 80.28,55.08 80.53,55.33 L82.16,56.96 C82.29,57.09 82.35,57.25 82.35,57.42 L82.35,61.96 C82.34,62.14 82.27,62.3 82.16,62.42 Z" opacity="0.5"/>
  <path d="M71.39,45.49 L69.76,43.86 C69.51,43.61 69.51,43.2 69.76,42.95 L71.39,41.32 C71.52,41.19 71.68,41.13 71.85,41.13 L76.4,41.13 C76.57,41.13 76.73,41.2 76.86,41.32 L78.49,42.95 C78.74,43.2 78.74,43.61 78.49,43.86 L76.86,45.49 C76.73,45.62 76.57,45.68 76.4,45.68 L71.85,45.68 C71.67,45.68 71.51,45.61 71.39,45.49 Z" opacity="0.5"/>
  <path d="M71.39,56.35 L69.76,54.72 C69.51,54.47 69.51,54.06 69.76,53.81 L71.39,52.18 C71.52,52.05 71.68,51.99 71.85,51.99 L76.4,51.99 C76.57,51.99 76.73,52.06 76.86,52.18 L78.49,53.81 C78.74,54.06 78.74,54.47 78.49,54.72 L76.86,56.35 C76.73,56.48 76.57,56.54 76.4,56.54 L71.85,56.54 C71.67,56.54 71.51,56.47 71.39,56.35 Z" opacity="0.5"/>
  <path d="M71.39,67.21 L69.76,65.58 C69.51,65.33 69.51,64.92 69.76,64.67 L71.39,63.04 C71.52,62.91 71.68,62.85 71.85,62.85 L76.4,62.85 C76.57,62.85 76.73,62.92 76.86,63.04 L78.49,64.67 C78.74,64.92 78.74,65.33 78.49,65.58 L76.86,67.21 C76.73,67.34 76.57,67.4 76.4,67.4 L71.85,67.4 C71.67,67.4 71.51,67.33 71.39,67.21 Z" opacity="0.5"/>
  <path d="M90.52,51.56 L88.89,53.19 C88.64,53.44 88.23,53.44 87.98,53.19 L86.35,51.56 C86.22,51.43 86.16,51.27 86.16,51.1 L86.16,46.56 C86.16,46.39 86.23,46.23 86.35,46.1 L87.98,44.47 C88.23,44.22 88.64,44.22 88.89,44.47 L90.52,46.1 C90.65,46.23 90.71,46.39 90.71,46.56 L90.71,51.1 C90.7,51.28 90.63,51.44 90.52,51.56 Z" opacity="0.5"/>
  <path d="M102.41,51.56 L100.78,53.19 C100.53,53.44 100.12,53.44 99.87,53.19 L98.24,51.56 C98.11,51.43 98.05,51.27 98.05,51.1 L98.05,46.56 C98.05,46.39 98.12,46.23 98.24,46.1 L99.87,44.47 C100.12,44.22 100.53,44.22 100.78,44.47 L102.41,46.1 C102.54,46.23 102.6,46.39 102.6,46.56 L102.6,51.1 C102.61,51.28 102.54,51.44 102.41,51.56 Z" opacity="0.5"/>
  <path d="M90.52,62.42 L88.89,64.05 C88.64,64.3 88.23,64.3 87.98,64.05 L86.35,62.42 C86.22,62.29 86.16,62.13 86.16,61.96 L86.16,57.42 C86.16,57.25 86.23,57.09 86.35,56.96 L87.98,55.33 C88.23,55.08 88.64,55.08 88.89,55.33 L90.52,56.96 C90.65,57.09 90.71,57.25 90.71,57.42 L90.71,61.96 C90.7,62.14 90.63,62.3 90.52,62.42 Z" opacity="0.5"/>
  <path d="M102.41,62.42 L100.78,64.05 C100.53,64.3 100.12,64.3 99.87,64.05 L98.24,62.42 C98.11,62.29 98.05,62.13 98.05,61.96 L98.05,57.42 C98.05,57.25 98.12,57.09 98.24,56.96 L99.87,55.33 C100.12,55.08 100.53,55.08 100.78,55.33 L102.41,56.96 C102.54,57.09 102.6,57.25 102.6,57.42 L102.6,61.96 C102.61,62.14 102.54,62.3 102.41,62.42 Z" opacity="0.5"/>
  <path d="M91.66,45.49 L90.03,43.86 C89.78,43.61 89.78,43.2 90.03,42.95 L91.66,41.32 C91.79,41.19 91.95,41.13 92.12,41.13 L96.67,41.13 C96.84,41.13 97,41.2 97.13,41.32 L98.76,42.95 C99.01,43.2 99.01,43.61 98.76,43.86 L97.13,45.49 C97,45.62 96.84,45.68 96.67,45.68 L92.12,45.68 C91.94,45.68 91.77,45.61 91.66,45.49 Z" opacity="0.5"/>
  <path d="M91.66,56.35 L90.03,54.72 C89.78,54.47 89.78,54.06 90.03,53.81 L91.66,52.18 C91.79,52.05 91.95,51.99 92.12,51.99 L96.67,51.99 C96.84,51.99 97,52.06 97.13,52.18 L98.76,53.81 C99.01,54.06 99.01,54.47 98.76,54.72 L97.13,56.35 C97,56.48 96.84,56.54 96.67,56.54 L92.12,56.54 C91.94,56.54 91.77,56.47 91.66,56.35 Z" opacity="0.5"/>
  <path d="M91.66,67.21 L90.03,65.58 C89.78,65.33 89.78,64.92 90.03,64.67 L91.66,63.04 C91.79,62.91 91.95,62.85 92.12,62.85 L96.67,62.85 C96.84,62.85 97,62.92 97.13,63.04 L98.76,64.67 C99.01,64.92 99.01,65.33 98.76,65.58 L97.13,67.21 C97,67.34 96.84,67.4 96.67,67.4 L92.12,67.4 C91.94,67.4 91.77,67.33 91.66,67.21 Z" opacity="0.5"/>
  <path d="M106.07,94.58 L97.39,94.58 C93.52,94.58 91.54,91.54 91.54,87.68 C91.54,83.81 93.52,80.78 97.39,80.78 L106.07,80.78 C109.94,80.78 111.92,83.82 111.92,87.68 C111.9,91.27 109.92,94.58 106.07,94.58 Z"/>
  <path d="M105.59,90 L97.79,90 C95.75,90 95.8,88.98 95.8,87.68 C95.8,86.38 95.75,85.36 97.79,85.36 L105.59,85.36 C107.63,85.36 107.67,86.38 107.67,87.68 C107.66,88.88 107.62,90 105.59,90 Z" fill="#8BC34A"/>
  <path d="M30.61,94.58 L21.93,94.58 C18.06,94.58 16.08,91.54 16.08,87.68 C16.08,83.81 18.06,80.78 21.93,80.78 L30.61,80.78 C34.48,80.78 36.46,83.82 36.46,87.68 C36.46,91.27 34.47,94.58 30.61,94.58 Z"/>
  <path d="M30.43,87.68 A4.16 4.16 0 1 1 22.11,87.68 A4.16 4.16 0 1 1 30.43,87.68 Z" fill="#F44336"/>
  <path d="M80.91,94.58 L72.23,94.58 C68.36,94.58 66.38,91.54 66.38,87.68 C66.38,83.81 68.36,80.78 72.23,80.78 L80.91,80.78 C84.78,80.78 86.76,83.82 86.76,87.68 C86.77,91.27 84.78,94.58 80.91,94.58 Z"/>
  <path d="M74.54,83.52 L81.43,87.68 L74.54,91.84 Z" fill="#EEEEEE"/>
  <path d="M47.09,94.58 L55.77,94.58 C59.64,94.58 61.62,91.54 61.62,87.68 C61.62,83.81 59.64,80.78 55.77,80.78 L47.09,80.78 C43.22,80.78 41.24,83.82 41.24,87.68 C41.23,91.27 43.22,94.58 47.09,94.58 Z"/>
  <path d="M53.46,83.52 L46.57,87.68 L53.46,91.84 Z" fill="#EEEEEE"/>
  <path d="M105.75,38.12 C107.87,38.12 109.55,39.79 109.55,41.92 L109.55,66.6 C109.55,68.72 107.88,70.4 105.75,70.4 L22.21,70.4 C20.09,70.4 18.41,68.73 18.41,66.6 L18.41,41.92 C18.41,39.8 20.08,38.12 22.21,38.12 L105.75,38.12 M105.75,32.94 L22.21,32.94 C17.25,32.94 13.22,36.97 13.22,41.93 L13.22,66.61 C13.22,71.57 17.25,75.6 22.21,75.6 L105.74,75.6 C110.7,75.6 114.73,71.57 114.73,66.61 L114.73,41.92 C114.73,36.97 110.7,32.94 105.75,32.94 L105.75,32.94 Z"/>
</svg>
